polaris-icons/icons/newicons/CancelMajor.svg

<svg width="20" height="20" viewBox="0 0 20 20" fill="none" xmlns="http://www.w3.org/2000/svg">
<path d="M14.4697 15.5303C14.7626 15.8232 15.2374 15.8232 15.5303 15.5303C15.8232 15.2374 15.8232 14.7626 15.5303 14.4697L11.0607 10L15.5303 5.53033C15.8232 5.23744 15.8232 4.76256 15.5303 4.46967C15.2374 4.17678 14.7626 4.17678 14.4697 4.46967L10 8.93934L5.53033 4.46967C5.23744 4.17678 4.76256 4.17678 4.46967 4.46967C4.17678 4.76256 4.17678 5.23744 4.46967 5.53033L8.93934 10L4.46967 14.4697C4.17678 14.7626 4.17678 15.2374 4.46967 15.5303C4.76256 15.8232 5.23744 15.8232 5.53033 15.5303L10 11.0607L14.4697 15.5303Z" fill="black"/>
</svg>

<svg viewBox="0 0 20 20" fill="none" xmlns="http://www.w3.org/2000/svg"><path d="M14.47 15.53a.75.75 0 1 0 1.06-1.06l-4.47-4.47 4.47-4.47a.75.75 0 0 0-1.06-1.06l-4.47 4.47-4.47-4.47a.75.75 0 0 0-1.06 1.06l4.47 4.47-4.47 4.47a.75.75 0 1 0 1.06 1.06l4.47-4.47 4.47 4.47Z" fill="#000"/></svg>
